packages/icons/src/spark-three-fill.svg

<svg width="24" height="24" viewBox="0 0 24 24" fill="none" xmlns="http://www.w3.org/2000/svg">
<path d="M4.6751 8.12498L5.7501 5.62498L8.3501 4.47498L5.7501 3.34998L4.6751 0.974976L3.6001 3.34998L1.0001 4.47498L3.6001 5.62498L4.6751 8.12498ZM4.6751 23L5.7501 20.6L8.3501 19.475L5.7501 18.35L4.6751 15.825L3.6001 18.35L1.0001 19.475L3.6001 20.6L4.6751 23ZM15.6501 19.15L17.9501 14.225L22.9751 11.975L17.9501 9.72497L15.6501 4.82498L13.3251 9.72497L8.3251 11.975L13.3251 14.225L15.6501 19.15Z" fill="black"/>
</svg>

<svg xmlns="http://www.w3.org/2000/svg" width="24" height="24" fill="none" viewBox="0 0 24 24">
  <path fill="#000" d="m4.675 8.125 1.075-2.5 2.6-1.15-2.6-1.125L4.675.975 3.6 3.35 1 4.475l2.6 1.15 1.075 2.5Zm0 14.875 1.075-2.4 2.6-1.125-2.6-1.125-1.075-2.525L3.6 18.35 1 19.475 3.6 20.6 4.675 23Zm10.975-3.85 2.3-4.925 5.025-2.25-5.025-2.25-2.3-4.9-2.325 4.9-5 2.25 5 2.25 2.325 4.925Z"/>
</svg>
